src/images/icons/bell.svg

<svg enable-background="new 0 0 512 512" version="1.1" viewBox="0 0 512 512" xml:space="preserve" xmlns="http://www.w3.org/2000/svg">
<g fill="#f6f6f6">
	<g fill="#f6f6f6">
		<path d="m467.81 431.85-36.629-61.056c-16.917-28.181-25.856-60.459-25.856-93.312v-53.483c0-67.52-45.056-124.63-106.67-143.04v-38.293c0-23.531-19.136-42.667-42.667-42.667s-42.667 19.136-42.667 42.667v38.293c-61.61 18.411-106.67 75.52-106.67 143.04v53.483c0 32.853-8.939 65.109-25.835 93.291l-36.629 61.056c-1.984 3.307-2.027 7.403-0.128 10.752s5.419 5.419 9.259 5.419h405.33c3.84 0 7.381-2.069 9.28-5.397 1.899-3.329 1.835-7.468-0.128-10.753z" fill="#f6f6f6"/>
	</g>
</g>
<g fill="#f6f6f6">
	<g fill="#f6f6f6">
		<path d="m188.82 469.33c12.032 25.131 37.504 42.667 67.178 42.667s55.147-17.536 67.179-42.667h-134.36z" fill="#f6f6f6"/>
	</g>
</g>















</svg>

<?xml version="1.0" encoding="iso-8859-1"?>
<!-- Generator: Adobe Illustrator 19.0.0, SVG Export Plug-In . SVG Version: 6.00 Build 0)  -->
<svg version="1.1" id="Capa_1" xmlns="http://www.w3.org/2000/svg" xmlns:xlink="http://www.w3.org/1999/xlink" x="0px" y="0px"
	 viewBox="0 0 512 512" style="enable-background:new 0 0 512 512;" xml:space="preserve">
<g>
	<g>
		<path d="M467.812,431.851l-36.629-61.056c-16.917-28.181-25.856-60.459-25.856-93.312V224c0-67.52-45.056-124.629-106.667-143.04
			V42.667C298.66,19.136,279.524,0,255.993,0s-42.667,19.136-42.667,42.667V80.96C151.716,99.371,106.66,156.48,106.66,224v53.483
			c0,32.853-8.939,65.109-25.835,93.291l-36.629,61.056c-1.984,3.307-2.027,7.403-0.128,10.752c1.899,3.349,5.419,5.419,9.259,5.419
			H458.66c3.84,0,7.381-2.069,9.28-5.397C469.839,439.275,469.775,435.136,467.812,431.851z"/>
	</g>
</g>
<g>
	<g>
		<path d="M188.815,469.333C200.847,494.464,226.319,512,255.993,512s55.147-17.536,67.179-42.667H188.815z"/>
	</g>
</g>
<g>
</g>
<g>
</g>
<g>
</g>
<g>
</g>
<g>
</g>
<g>
</g>
<g>
</g>
<g>
</g>
<g>
</g>
<g>
</g>
<g>
</g>
<g>
</g>
<g>
</g>
<g>
</g>
<g>
</g>
</svg>
